X:375
T:West Wind No. 1
Z: id:dc-reel-347
M:C
L:1/8
K:G Major
GF|DGG2 BGG2|cAA2 dcAF|DGG2 BGBd|cAFG AGGF|!
DGG2 B3d|c3A dcA2|g3a gfde|fdcA AG:|!
Bd|g3a gfde|f2ge fdcA|dgg2 gfde|fdcA AGBd|!
g3a gfde|f2ge fdcA|dgg2 bgag|fdcA AG:|!

